;FLAVOR:Marlin
;TIME:3621
;Filament used: 2.06554m
;Layer height: 0.2
;MINX:96.2
;MINY:96.2
;MINZ:0.2
;MAXX:123.8
;MAXY:123.8
;MAXZ:60
;Generated with Cura_SteamEngine 5.0.0
M140 S60
M105
M190 S60
M104 S200
M105
M109 S200
M82 ;absolute extrusion mode
; Ender 3 Custom Start G-code
G92 E0 ; Reset Extruder
G28 ; Home all axes
G1 Z2.0 F3000 ; Move Z Axis up little to prevent scratching of Heat Bed
G1 X0.1 Y20 Z0.3 F5000.0 ; Move to start position
G1 X0.1 Y200.0 Z0.3 F1500.0 E15 ; Draw the first line
G1 X0.4 Y200.0 Z0.3 F5000.0 ; Move to side a little
G1 X0.4 Y20 Z0.3 F1500.0 E30 ; Draw the second line
G92 E0 ; Reset Extruder
G1 Z2.0 F3000 ; Move Z Axis up little to prevent scratching of Heat Bed
G1 X5 Y20 Z0.3 F5000.0 ; Move over to prevent blob squish
G92 E0
G92 E0
G1 F1500 E-6.5
;LAYER_COUNT:300
;LAYER:0
M107
;MESH:cutoff.stl
G0 F9000 X97.075 Y109.18 Z0.2
;TYPE:WALL-OUTER
G1 F1500 E0
G1 F720 X97.153 Y108.369 E0.0271
G1 X97.278 Y107.579 E0.0537
G1 X97.457 Y106.773 E0.08116
G1 X97.686 Y105.991 E0.10826
G1 X97.961 Y105.227 E0.13527
G1 X98.284 Y104.479 E0.16237
G1 X98.655 Y103.755 E0.18943
G1 X99.069 Y103.055 E0.21648
G1 X99.525 Y102.383 E0.24349
G1 X100.026 Y101.741 E0.27057
G1 X100.564 Y101.13 E0.29765
G1 X101.141 Y100.556 E0.32472
G1 X101.75 Y100.016 E0.35179
G1 X102.392 Y99.52 E0.37877
G1 X103.063 Y99.064 E0.40576
G1 X103.766 Y98.648 E0.43293
G1 X104.492 Y98.279 E0.46001
G1 X105.237 Y97.957 E0.48701
G1 X106.005 Y97.68 E0.51416
G1 X106.787 Y97.454 E0.54124
G1 X107.591 Y97.274 E0.56864
G1 X108.384 Y97.151 E0.59533
G1 X109.194 Y97.075 E0.62239
G1 X110.007 Y97.05 E0.64944
G1 X110.82 Y97.075 E0.6765
G1 X111.631 Y97.153 E0.70359
G1 X112.421 Y97.278 E0.7302
G1 X113.228 Y97.457 E0.75769
G1 X114.009 Y97.686 E0.78476
G1 X114.775 Y97.962 E0.81184
G1 X115.521 Y98.284 E0.83886
G1 X116.246 Y98.656 E0.86597
G1 X116.946 Y99.07 E0.89302
G1 X117.608 Y99.517 E0.91958
G1 X118.259 Y100.026 E0.94707
G1 X118.87 Y100.564 E0.97415
G1 X119.444 Y101.141 E1.00122
G1 X119.985 Y101.751 E1.02833
G1 X120.481 Y102.393 E1.05532
G1 X120.937 Y103.065 E1.08233
G1 X121.352 Y103.766 E1.10942
G1 X121.721 Y104.493 E1.13654
G1 X122.043 Y105.237 E1.1635
G1 X122.32 Y106.004 E1.19063
G1 X122.545 Y106.786 E1.21769
G1 X122.726 Y107.592 E1.24517
G1 X122.849 Y108.383 E1.27179
G1 X122.925 Y109.193 E1.29885
G1 X122.95 Y110.006 E1.3259
G1 X122.925 Y110.817 E1.35289
G1 X122.848 Y111.628 E1.37999
G1 X122.722 Y112.419 E1.40663
G1 X122.544 Y113.221 E1.43395
G1 X122.315 Y114.007 E1.46118
G1 X122.046 Y114.76 E1.48777
G1 X121.722 Y115.507 E1.51486
G1 X121.352 Y116.233 E1.54196
G1 X120.933 Y116.943 E1.56938
G1 X120.476 Y117.616 E1.59644
G1 X119.975 Y118.256 E1.62347
G1 X119.437 Y118.868 E1.65057
G1 X118.86 Y119.443 E1.67766
G1 X118.25 Y119.984 E1.70478
G1 X117.608 Y120.48 E1.73177
G1 X116.938 Y120.936 E1.75872
G1 X116.236 Y121.351 E1.78584
G1 X115.509 Y121.72 E1.81296
G1 X114.766 Y122.042 E1.83989
G1 X113.997 Y122.32 E1.86709
G1 X113.214 Y122.546 E1.8942
G1 X112.41 Y122.726 E1.9216
G1 X111.617 Y122.849 E1.94829
G1 X110.807 Y122.925 E1.97535
G1 X109.994 Y122.95 E2.0024
G1 X109.181 Y122.925 E2.02946
G1 X108.37 Y122.847 E2.05656
G1 X107.58 Y122.722 E2.08316
G1 X106.774 Y122.543 E2.11062
G1 X105.992 Y122.314 E2.13772
G1 X105.226 Y122.038 E2.1648
G1 X104.481 Y121.716 E2.19179
G1 X103.755 Y121.344 E2.21893
G1 X103.056 Y120.93 E2.24595
G1 X102.384 Y120.476 E2.27292
G1 X101.742 Y119.975 E2.30001
G1 X101.13 Y119.436 E2.32713
G1 X100.556 Y118.859 E2.3542
G1 X100.015 Y118.249 E2.38132
G1 X99.518 Y117.606 E2.40835
G1 X99.062 Y116.934 E2.43536
G1 X98.647 Y116.233 E2.46245
G1 X98.279 Y115.507 E2.48953
G1 X97.956 Y114.761 E2.51656
G1 X97.68 Y113.995 E2.54364
G1 X97.454 Y113.213 E2.57072
G1 X97.274 Y112.409 E2.59812
G1 X97.151 Y111.616 E2.62481
G1 X97.075 Y110.806 E2.65187
G1 X97.05 Y110.008 E2.67843
G1 X97.075 Y109.18 E2.70598
G0 F9000 X96.669 Y109.141
G0 X96.611 Y110
G0 X96.2 Y110
G1 F720 X96.231 Y110.896 E2.7358
G1 X96.313 Y111.758 E2.7646
G1 X96.445 Y112.583 E2.79239
G1 X96.639 Y113.443 E2.82171
G1 X96.877 Y114.261 E2.85004
G1 X97.175 Y115.092 E2.87941
G1 X97.512 Y115.872 E2.90767
G1 X97.907 Y116.647 E2.9366
G1 X98.355 Y117.403 E2.96583
G1 X98.836 Y118.11 E2.99427
G1 X99.375 Y118.803 E3.02347
G1 X99.949 Y119.455 E3.05236
G1 X100.562 Y120.066 E3.08115
G1 X101.213 Y120.638 E3.10997
G1 X101.899 Y121.169 E3.13882
G1 X102.578 Y121.632 E3.16616
G1 X102.634 Y121.668 E3.16837
G1 X103.359 Y122.096 E3.19637
G1 X104.123 Y122.486 E3.2249
G1 X104.951 Y122.843 E3.25489
G1 X105.746 Y123.127 E3.28297
G1 X106.581 Y123.366 E3.31186
G1 X107.428 Y123.557 E3.34074
G1 X108.284 Y123.691 E3.36955
G1 X109.146 Y123.772 E3.39835
G1 X110.011 Y123.8 E3.42714
G1 X110.833 Y123.773 E3.45449
G1 X110.897 Y123.769 E3.45662
G1 X111.759 Y123.687 E3.48542
G1 X112.598 Y123.552 E3.51369
G1 X113.444 Y123.362 E3.54253
G1 X114.297 Y123.113 E3.57208
G1 X115.089 Y122.826 E3.6001
G1 X115.874 Y122.486 E3.62855
G1 X116.621 Y122.107 E3.65641
G1 X117.406 Y121.645 E3.68671
G1 X118.122 Y121.156 E3.71555
G1 X118.806 Y120.625 E3.74435
G1 X119.456 Y120.051 E3.77319
G1 X120.068 Y119.438 E3.802
G1 X120.653 Y118.77 E3.83153
G1 X121.17 Y118.102 E3.85963
G1 X121.659 Y117.383 E3.88855
G1 X122.096 Y116.638 E3.91727
G1 X122.491 Y115.863 E3.94621
G1 X122.834 Y115.068 E3.975
G1 X123.127 Y114.252 E4.00384
G1 X123.366 Y113.421 E4.0326
G1 X123.558 Y112.568 E4.06168
G1 X123.691 Y111.718 E4.0903
G1 X123.772 Y110.852 E4.11923
G1 X123.799 Y109.967 E4.14867
G1 X123.772 Y109.136 E4.17633
G1 X123.689 Y108.262 E4.20553
G1 X123.555 Y107.418 E4.23395
G1 X123.361 Y106.561 E4.26318
G1 X123.128 Y105.754 E4.29111
G1 X122.836 Y104.936 E4.32
G1 X122.493 Y104.14 E4.34883
G1 X122.088 Y103.344 E4.37854
G1 X121.646 Y102.599 E4.40735
G1 X121.157 Y101.882 E4.43621
G1 X120.652 Y101.232 E4.46359
G1 X120.612 Y101.182 E4.46572
G1 X120.052 Y100.547 E4.49388
G1 X119.438 Y99.934 E4.52274
G1 X118.788 Y99.362 E4.55153
G1 X118.084 Y98.818 E4.58113
G1 X117.384 Y98.342 E4.60928
G1 X116.638 Y97.903 E4.63807
G1 X115.878 Y97.515 E4.66645
G1 X115.051 Y97.158 E4.69641
G1 X114.235 Y96.867 E4.72523
G1 X113.399 Y96.628 E4.75414
G1 X112.574 Y96.443 E4.78227
G1 X111.731 Y96.309 E4.81066
G1 X110.898 Y96.232 E4.83848
G1 X110.833 Y96.227 E4.84065
G1 X109.991 Y96.201 E4.86867
G1 X109.124 Y96.229 E4.89752
G1 X108.272 Y96.31 E4.92598
G1 X108.242 Y96.313 E4.92699
G1 X107.403 Y96.448 E4.95525
G1 X106.541 Y96.643 E4.98465
G1 X105.726 Y96.879 E5.01287
G1 X104.912 Y97.174 E5.04166
G1 X104.116 Y97.519 E5.07052
G1 X103.325 Y97.924 E5.10007
G1 X102.596 Y98.355 E5.12824
G1 X101.916 Y98.818 E5.1556
G1 X101.863 Y98.856 E5.15777
G1 X101.205 Y99.366 E5.18546
G1 X100.532 Y99.961 E5.21534
G1 X99.932 Y100.562 E5.24359
G1 X99.36 Y101.214 E5.27243
G1 X98.836 Y101.888 E5.30083
G1 X98.341 Y102.617 E5.33014
G1 X97.909 Y103.351 E5.35846
G1 X97.502 Y104.154 E5.38841
G1 X97.165 Y104.932 E5.41661
G1 X96.868 Y105.765 E5.44602
G1 X96.633 Y106.58 E5.47423
G1 X96.443 Y107.428 E5.50314
G1 X96.315 Y108.237 E5.53038
G1 X96.307 Y108.302 E5.53256
G1 X96.228 Y109.148 E5.56082
G1 X96.2 Y110 E5.58917
G0 F9000 X96.611 Y110
G0 X96.936 Y107.508
G0 X97.351 Y105.891
G0 X97.965 Y104.337
G0 X98.771 Y102.874
G0 X99.567 Y101.78
G0 X100.832 Y100.262
;TYPE:WALL-INNER
G1 F637.2 X100.25 Y100.843 E5.62008
G1 F638.6 X99.684 Y101.489 E5.65229
G1 F641.4 X99.179 Y102.138 E5.68299
G1 X98.707 Y102.833 E5.71435
G1 F638.6 X98.288 Y103.54 E5.74517
G1 F640 X97.89 Y104.323 E5.77804
G1 F641.4 X97.564 Y105.076 E5.80867
G1 F640 X97.275 Y105.884 E5.84078
G1 F642.9 X97.046 Y106.673 E5.87139
G1 X96.862 Y107.495 E5.90276
G1 F641.4 X96.729 Y108.342 E5.93477
G1 X96.652 Y109.141 E5.96474
G1 F640 X96.625 Y110 E5.9969
G1 F641.4 X96.653 Y110.858 E6.02895
G1 X96.733 Y111.693 E6.06027
G1 X96.863 Y112.514 E6.0913
G1 F642.9 X97.046 Y113.326 E6.12231
G1 X97.286 Y114.151 E6.15431
G1 X97.565 Y114.925 E6.18496
G1 F641.4 X97.896 Y115.692 E6.21615
G1 X98.288 Y116.459 E6.24831
G1 F642.9 X98.718 Y117.183 E6.27968
G1 X99.179 Y117.861 E6.31022
G1 X99.707 Y118.54 E6.34226
G1 F640 X100.25 Y119.155 E6.37296
G1 F637.2 X100.829 Y119.737 E6.40381
G1 F640 X101.491 Y120.317 E6.43674
G1 F641.4 X102.124 Y120.811 E6.46672
G1 F640 X102.85 Y121.303 E6.49954
G1 X103.572 Y121.728 E6.53089
G1 X104.304 Y122.102 E6.56164
G1 X105.094 Y122.443 E6.59384
G1 X105.865 Y122.719 E6.62448
G1 X106.656 Y122.951 E6.65533
G1 F641.4 X107.526 Y123.143 E6.68859
G1 F642.9 X108.343 Y123.271 E6.71939
G1 F641.4 X109.142 Y123.348 E6.74936
G1 X110.021 Y123.374 E6.78219
G1 F642.9 X110.858 Y123.347 E6.81339
G1 F641.4 X111.694 Y123.267 E6.84474
G1 X112.515 Y123.137 E6.87578
G1 F642.9 X113.343 Y122.95 E6.9074
G1 F644.3 X114.154 Y122.715 E6.93878
G1 F645.7 X114.946 Y122.427 E6.97003
G1 F644.3 X115.712 Y122.093 E7.00109
G1 F641.4 X116.429 Y121.729 E7.03112
G1 F640 X117.154 Y121.301 E7.06262
G1 F641.4 X117.847 Y120.831 E7.09388
G1 F644.3 X118.54 Y120.295 E7.12644
G1 F641.4 X119.169 Y119.736 E7.15786
G1 F638.6 X119.765 Y119.139 E7.18949
G1 F640 X120.318 Y118.509 E7.22086
G1 F642.9 X120.834 Y117.845 E7.25219
G1 F644.3 X121.305 Y117.148 E7.28345
G1 F642.9 X121.719 Y116.445 E7.31384
G1 F644.3 X122.111 Y115.675 E7.34596
G1 F645.7 X122.445 Y114.903 E7.37715
G1 F644.3 X122.726 Y114.114 E7.40828
G1 F645.7 X122.96 Y113.306 E7.43948
G1 F644.3 X123.138 Y112.501 E7.47012
G1 F641.4 X123.269 Y111.678 E7.50124
G1 F642.9 X123.348 Y110.839 E7.53263
G1 X123.375 Y110 E7.5639
G1 X123.347 Y109.141 E7.59591
G1 X123.27 Y108.327 E7.62637
G1 X123.137 Y107.486 E7.65809
G1 X122.949 Y106.657 E7.68975
G1 F647.2 X122.715 Y105.849 E7.72088
G1 F648.6 X122.428 Y105.056 E7.75202
G1 F644.3 X122.094 Y104.289 E7.78311
G1 F641.4 X121.722 Y103.559 E7.8137
G1 F640 X121.295 Y102.837 E7.84508
G1 F642.9 X120.809 Y102.124 E7.87723
G1 F647.2 X120.296 Y101.461 E7.90825
G1 F644.3 X119.737 Y100.833 E7.9395
G1 F642.9 X119.142 Y100.237 E7.97087
G1 F644.3 X118.511 Y99.684 E8.00205
G1 F645.7 X117.846 Y99.167 E8.03329
G1 F644.3 X117.151 Y98.697 E8.06448
G1 F640 X116.429 Y98.272 E8.09582
G1 X115.677 Y97.889 E8.1274
G1 X114.907 Y97.557 E8.15878
G1 X114.116 Y97.275 E8.1902
G1 F642.9 X113.328 Y97.046 E8.22077
G1 F644.3 X112.507 Y96.862 E8.25204
G1 F642.9 X111.658 Y96.729 E8.28405
G1 X110.843 Y96.652 E8.31455
G1 X110.003 Y96.625 E8.34585
G1 X109.142 Y96.653 E8.37794
G1 F641.4 X108.307 Y96.733 E8.40926
G1 X107.486 Y96.863 E8.44029
G1 F642.9 X106.657 Y97.05 E8.47195
G1 X105.869 Y97.279 E8.50252
G1 X105.057 Y97.573 E8.53469
G1 X104.307 Y97.897 E8.56512
G1 X103.539 Y98.29 E8.59726
G1 F641.4 X102.834 Y98.707 E8.62784
G1 F640 X102.122 Y99.192 E8.66008
G1 F638.6 X101.489 Y99.68 E8.69005
G1 F637.2 X100.832 Y100.262 E8.72304
G1 F1500 E2.22304
;MESH:NONMESH
G0 F300 X100.832 Y100.262 Z0.4
G0 F9000 X99.24 Y102.183
G0 X98.345 Y103.593
G0 X97.634 Y105.104
G0 X97.119 Y106.693
G0 X96.669 Y109.141
G1 F1500 E8.72304
G0 F9000 X97.075 Y109.18
;TIME_ELAPSED:27.812310
;LAYER:1
M106 S85
;TYPE:WALL-OUTER
;MESH:cutoff.stl
G1 F1110 X97.153 Y108.369 E8.75014
G1 X97.278 Y107.579 E8.77674
G1 X97.457 Y106.773 E8.8042
G1 X97.686 Y105.991 E8.8313
G1 X97.961 Y105.227 E8.85831
G1 X98.284 Y104.479 E8.88541
G1 X98.655 Y103.755 E8.91246
G1 X99.069 Y103.055 E8.93951
G1 X99.525 Y102.383 E8.96652
G1 X100.026 Y101.741 E8.99361
G1 X100.564 Y101.13 E9.02069
G1 X101.141 Y100.556 E9.04776
G1 X101.748 Y100.017 E9.07476
G1 X102.39 Y99.521 E9.10174
G1 X103.061 Y99.065 E9.12872
G1 X103.763 Y98.65 E9.15585
G1 X104.49 Y98.281 E9.18296
G1 X105.237 Y97.957 E9.21005
G1 X106.005 Y97.68 E9.2372
G1 X106.787 Y97.454 E9.26427
G1 X107.591 Y97.274 E9.29168
G1 X108.384 Y97.151 E9.31837
G1 X109.194 Y97.075 E9.34543
G1 X110.007 Y97.05 E9.37248
G1 X110.82 Y97.075 E9.39953
G1 X111.631 Y97.153 E9.42663
G1 X112.421 Y97.278 E9.45323
G1 X113.228 Y97.458 E9.48073
G1 X114.009 Y97.686 E9.50779
G1 X114.775 Y97.962 E9.53488
G1 X115.521 Y98.284 E9.5619
G1 X116.246 Y98.656 E9.589
G1 X116.946 Y99.07 E9.61605
G1 X117.608 Y99.517 E9.64262
G1 X118.259 Y100.026 E9.6701
G1 X118.87 Y100.564 E9.69718
G1 X119.444 Y101.141 E9.72425
G1 X119.985 Y101.751 E9.75137
G1 X120.481 Y102.393 E9.77835
G1 X120.937 Y103.065 E9.80536
G1 X121.352 Y103.767 E9.83249
G1 X121.721 Y104.493 E9.85957
G1 X122.039 Y105.225 E9.88612
G1 X122.319 Y106.005 E9.91368
G1 X122.546 Y106.786 E9.94073
G1 X122.725 Y107.584 E9.96794
G1 X122.849 Y108.383 E9.99483
G1 X122.925 Y109.193 E10.02189
G1 X122.95 Y110.006 E10.04894
G1 X122.925 Y110.812 E10.07576
G1 X122.849 Y111.623 E10.10285
G1 X122.723 Y112.413 E10.12946
G1 X122.545 Y113.22 E10.15695
G1 X122.319 Y113.989 E10.18361
G1 X122.047 Y114.755 E10.21064
G1 X121.719 Y115.514 E10.23814
G1 X121.353 Y116.227 E10.2648
G1 X120.943 Y116.929 E10.29184
G1 X120.487 Y117.602 E10.31888
G1 X119.978 Y118.253 E10.34636
G1 X119.44 Y118.865 E10.37346
G1 X118.864 Y119.439 E10.40051
G1 X118.254 Y119.981 E10.42765
G1 X117.612 Y120.477 E10.45463
G1 X116.941 Y120.934 E10.48164
G1 X116.25 Y121.344 E10.50836
G1 X115.512 Y121.719 E10.53589
G1 X114.769 Y122.041 E10.56283
G1 X114 Y122.317 E10.59
G1 X113.218 Y122.545 E10.61709
G1 X112.414 Y122.725 E10.6445
G1 X111.622 Y122.848 E10.67115
G1 X110.811 Y122.925 E10.69825
G1 X109.998 Y122.95 E10.7253
G1 X109.184 Y122.925 E10.75239
G1 X108.373 Y122.847 E10.77949
G1 X107.584 Y122.722 E10.80606
G1 X106.777 Y122.544 E10.83354
G1 X105.995 Y122.315 E10.86064
G1 X105.229 Y122.039 E10.88772
G1 X104.483 Y121.717 E10.91475
G1 X103.757 Y121.346 E10.94187
G1 X103.057 Y120.932 E10.96892
G1 X102.386 Y120.477 E10.99588
G1 X101.744 Y119.976 E11.02297
G1 X101.132 Y119.437 E11.05009
G1 X100.556 Y118.859 E11.07723
G1 X100.015 Y118.249 E11.10435
G1 X99.518 Y117.606 E11.13138
G1 X99.062 Y116.934 E11.15839
G1 X98.647 Y116.233 E11.18548
G1 X98.279 Y115.507 E11.21256
G1 X97.956 Y114.761 E11.23959
G1 X97.68 Y113.995 E11.26667
G1 X97.454 Y113.213 E11.29375
G1 X97.274 Y112.409 E11.32115
G1 X97.151 Y111.616 E11.34784
G1 X97.075 Y110.806 E11.3749
G1 X97.05 Y110.008 E11.40146
G1 X97.075 Y109.18 E11.42901
G0 F9000 X96.669 Y109.141
G0 X96.611 Y110
G0 X96.2 Y110.012
G1 F1110 X96.228 Y110.854 E11.45703
G1 X96.309 Y111.729 E11.48626
G1 X96.445 Y112.583 E11.51502
G1 X96.639 Y113.443 E11.54434
G1 X96.877 Y114.261 E11.57267
G1 X97.175 Y115.092 E11.60204
G1 X97.512 Y115.872 E11.6303
G1 X97.907 Y116.647 E11.65923
G1 X98.355 Y117.403 E11.68846
G1 X98.836 Y118.11 E11.7169
G1 X99.375 Y118.803 E11.7461
G1 X99.949 Y119.455 E11.77499
G1 X100.552 Y120.058 E11.80335
G1 X101.212 Y120.635 E11.83251
G1 X101.865 Y121.145 E11.86007
G1 X102.603 Y121.651 E11.88983
G1 X103.356 Y122.095 E11.91891
G1 X104.132 Y122.489 E11.94785
G1 X104.934 Y122.837 E11.97693
G1 X105.746 Y123.127 E12.00561
G1 X106.581 Y123.366 E12.03449
G1 X107.428 Y123.557 E12.06337
G1 X108.271 Y123.691 E12.09176
G1 X109.146 Y123.772 E12.12099
G1 X110.011 Y123.8 E12.14978
G1 X110.837 Y123.773 E12.17726
G1 X111.702 Y123.694 E12.20615
G1 X111.763 Y123.686 E12.2082
G1 X112.598 Y123.552 E12.23633
G1 X113.464 Y123.356 E12.26586
G1 X114.275 Y123.121 E12.29394
G1 X115.066 Y122.835 E12.32192
G1 X115.116 Y122.815 E12.32371
G1 X115.886 Y122.48 E12.35164
G1 X116.659 Y122.085 E12.38051
G1 X117.382 Y121.66 E12.4084
G1 X118.122 Y121.156 E12.43818
G1 X118.806 Y120.625 E12.46698
G1 X119.456 Y120.051 E12.49583
G1 X120.067 Y119.438 E12.52461
G1 X120.64 Y118.786 E12.55348
G1 X121.17 Y118.102 E12.58226
G1 X121.659 Y117.383 E12.61118
G1 X122.096 Y116.638 E12.63991
G1 X122.491 Y115.863 E12.66884
G1 X122.83 Y115.08 E12.69722
G1 X123.118 Y114.278 E12.72556
G1 X123.135 Y114.226 E12.72738
G1 X123.366 Y113.421 E12.75524
G1 X123.559 Y112.562 E12.78452
G1 X123.691 Y111.718 E12.81293
G1 X123.772 Y110.852 E12.84186
G1 X123.799 Y109.966 E12.87134
G1 X123.771 Y109.131 E12.89913
G1 X123.69 Y108.269 E12.92793
G1 X123.556 Y107.424 E12.95639
G1 X123.363 Y106.566 E12.98564
G1 X123.125 Y105.747 E13.014
G1 X122.829 Y104.917 E13.04331
G1 X122.484 Y104.121 E13.07217
G1 X122.091 Y103.35 E13.10095
G1 X121.65 Y102.604 E13.12977
G1 X121.161 Y101.887 E13.15864
G1 X120.628 Y101.201 E13.18753
G1 X120.056 Y100.552 E13.2163
G1 X119.441 Y99.937 E13.24523
G1 X118.802 Y99.374 E13.27356
G1 X118.106 Y98.834 E13.30286
G1 X117.388 Y98.345 E13.33175
