;FLAVOR:Marlin
;TIME:1414
;Filament used: 0.820896m
;Layer height: 0.2
;MINX:96.2
;MINY:96.2
;MINZ:0.2
;MAXX:123.8
;MAXY:123.8
;MAXZ:23.6
;Generated with Cura_SteamEngine 5.0.0
M140 S60
M105
M190 S60
M104 S200
M105
M109 S200
M82 ;absolute extrusion mode
; Ender 3 Custom Start G-code
G92 E0 ; Reset Extruder
G28 ; Home all axes
G1 Z2.0 F3000 ; Move Z Axis up little to prevent scratching of Heat Bed
G1 X0.1 Y20 Z0.3 F5000.0 ; Move to start position
G1 X0.1 Y200.0 Z0.3 F1500.0 E15 ; Draw the first line
G1 X0.4 Y200.0 Z0.3 F5000.0 ; Move to side a little
G1 X0.4 Y20 Z0.3 F1500.0 E30 ; Draw the second line
G92 E0 ; Reset Extruder
G1 Z2.0 F3000 ; Move Z Axis up little to prevent scratching of Heat Bed
G1 X5 Y20 Z0.3 F5000.0 ; Move over to prevent blob squish
G92 E0
G92 E0
G1 F1500 E-6.5
;LAYER_COUNT:120
;LAYER:0
M107
;MESH:cutoff.stl
G0 F9000 X96.2 Y110.013 Z0.2
;TYPE:WALL-OUTER
G1 F1500 E0
G1 F720 X96.232 Y110.907 E0.02975
G1 X96.311 Y111.745 E0.05775
G1 X96.445 Y112.583 E0.08598
G1 X96.64 Y113.446 E0.1154
G1 X96.878 Y114.264 E0.14374
G1 X97.17 Y115.08 E0.17256
G1 X97.504 Y115.856 E0.20066
G1 X97.907 Y116.647 E0.23019
G1 X98.357 Y117.406 E0.25954
G1 X98.836 Y118.11 E0.28786
G1 X99.378 Y118.806 E0.3172
G1 X99.953 Y119.457 E0.34609
G1 X100.553 Y120.057 E0.37431
G1 X101.216 Y120.641 E0.4037
G1 X101.861 Y121.142 E0.43086
G1 X102.621 Y121.661 E0.46147
G1 X103.349 Y122.091 E0.48959
G1 X104.139 Y122.493 E0.51907
G1 X104.951 Y122.843 E0.54848
G1 X105.751 Y123.128 E0.57673
G1 X106.569 Y123.364 E0.60504
G1 X107.415 Y123.555 E0.63389
G1 X108.288 Y123.692 E0.66328
G1 X109.1 Y123.769 E0.69041
G1 X110.015 Y123.8 E0.72086
G1 X110.829 Y123.773 E0.74795
G1 X110.909 Y123.768 E0.75062
G1 X111.745 Y123.689 E0.77854
G1 X112.585 Y123.555 E0.80684
G1 X113.448 Y123.36 E0.83626
G1 X114.263 Y123.125 E0.86447
G1 X115.093 Y122.824 E0.89384
G1 X115.874 Y122.486 E0.92214
G1 X116.618 Y122.108 E0.9499
G1 X117.379 Y121.662 E0.97924
G1 X118.112 Y121.163 E1.00873
G1 X118.796 Y120.633 E1.03751
G1 X119.459 Y120.048 E1.06692
G1 X120.059 Y119.447 E1.09517
G1 X120.633 Y118.796 E1.12403
G1 X121.163 Y118.112 E1.15281
G1 X121.661 Y117.38 E1.18226
G1 X122.098 Y116.635 E1.21099
G1 X122.493 Y115.859 E1.23995
G1 X122.835 Y115.064 E1.26873
G1 X123.124 Y114.265 E1.29699
G1 X123.364 Y113.433 E1.32579
G1 X123.557 Y112.569 E1.35524
G1 X123.692 Y111.714 E1.38403
G1 X123.772 Y110.848 E1.41295
G1 X123.798 Y109.959 E1.44253
G1 X123.772 Y109.138 E1.46985
G1 X123.69 Y108.265 E1.49902
G1 X123.557 Y107.426 E1.52727
G1 X123.362 Y106.565 E1.55663
G1 X123.125 Y105.745 E1.58502
G1 X122.827 Y104.914 E1.61439
G1 X122.483 Y104.117 E1.64326
G1 X122.097 Y103.362 E1.67146
G1 X121.657 Y102.616 E1.70027
G1 X121.168 Y101.898 E1.72916
G1 X120.626 Y101.198 E1.75861
G1 X120.054 Y100.55 E1.78735
G1 X119.439 Y99.935 E1.81628
G1 X118.766 Y99.345 E1.84605
G1 X118.116 Y98.841 E1.87341
G1 X117.385 Y98.343 E1.90283
G1 X116.615 Y97.891 E1.93252
G1 X115.867 Y97.51 E1.96044
G1 X115.056 Y97.16 E1.98982
G1 X114.255 Y96.875 E2.0181
G1 X113.421 Y96.634 E2.04697
G1 X112.574 Y96.444 E2.07584
G1 X111.734 Y96.31 E2.10414
G1 X110.89 Y96.231 E2.13233
G1 X110.826 Y96.227 E2.13446
G1 X109.991 Y96.201 E2.16225
G1 X109.124 Y96.23 E2.1911
G1 X108.259 Y96.311 E2.22
G1 X107.42 Y96.444 E2.24825
G1 X106.557 Y96.639 E2.27768
G1 X105.741 Y96.874 E2.30592
G1 X104.912 Y97.174 E2.33524
G1 X104.114 Y97.519 E2.36416
G1 X103.355 Y97.907 E2.39251
G1 X102.596 Y98.355 E2.42183
G1 X101.878 Y98.845 E2.45074
G1 X101.195 Y99.375 E2.47949
G1 X100.544 Y99.949 E2.50836
G1 X99.932 Y100.562 E2.53717
G1 X99.358 Y101.214 E2.56606
G1 X98.83 Y101.898 E2.5948
G1 X98.341 Y102.617 E2.62372
G1 X97.927 Y103.319 E2.65083
G1 X97.515 Y104.123 E2.68087
G1 X97.171 Y104.917 E2.70966
G1 X96.871 Y105.751 E2.73913
G1 X96.637 Y106.564 E2.76727
G1 X96.444 Y107.429 E2.79675
G1 X96.308 Y108.283 E2.82551
G1 X96.232 Y109.095 E2.85264
G1 X96.227 Y109.174 E2.85527
G1 X96.2 Y110.013 E2.88319
G0 F9000 X96.575 Y110.002
;TYPE:WALL-INNER
G1 F825.2 X96.603 Y110.849 E2.90778
G1 X96.682 Y111.687 E2.93221
G1 X96.806 Y112.479 E2.95547
G1 F827.6 X96.997 Y113.332 E2.98077
G1 X97.228 Y114.129 E3.00478
G1 X97.509 Y114.917 E3.02899
G1 F822.9 X97.841 Y115.691 E3.0535
G1 X98.235 Y116.466 E3.0788
G1 F825.2 X98.667 Y117.196 E3.10341
G1 X99.142 Y117.894 E3.12791
G1 X99.639 Y118.536 E3.15148
G1 X100.235 Y119.21 E3.17758
G1 X100.814 Y119.788 E3.20133
G1 X101.447 Y120.345 E3.22579
G1 X102.11 Y120.861 E3.25017
G1 X102.833 Y121.351 E3.27552
G1 F822.9 X103.534 Y121.764 E3.2992
G1 X104.289 Y122.148 E3.32385
G1 X105.088 Y122.494 E3.34919
G1 F820.5 X105.829 Y122.76 E3.37217
G1 F822.9 X106.638 Y122.997 E3.3967
G1 X107.491 Y123.187 E3.42213
G1 X108.324 Y123.319 E3.44668
G1 X109.134 Y123.397 E3.47036
G1 X110.004 Y123.425 E3.49569
G1 F825.2 X110.874 Y123.396 E3.52095
G1 F822.9 X111.687 Y123.318 E3.54472
G1 X112.481 Y123.194 E3.56811
G1 F825.2 X113.315 Y123.008 E3.59291
G1 F827.6 X113.369 Y122.995 E3.59451
G1 X114.152 Y122.766 E3.61812
G1 F825.2 X114.945 Y122.48 E3.64258
G1 F822.9 X115.743 Y122.133 E3.66791
G1 F825.2 X116.464 Y121.765 E3.6914
G1 X117.176 Y121.346 E3.71537
G1 F822.9 X117.92 Y120.84 E3.74156
G1 F825.2 X118.561 Y120.341 E3.76513
G1 F822.9 X119.174 Y119.801 E3.78891
G1 X119.79 Y119.186 E3.81424
G1 F825.2 X120.359 Y118.539 E3.83924
G1 F827.6 X120.882 Y117.862 E3.864
G1 X121.338 Y117.189 E3.88752
G1 X121.781 Y116.436 E3.9128
G1 X122.149 Y115.709 E3.93638
G1 X122.495 Y114.906 E3.96168
G1 X122.769 Y114.143 E3.98514
G1 X123.011 Y113.302 E4.01046
G1 X123.187 Y112.51 E4.03394
G1 F825.2 X123.319 Y111.678 E4.05839
G1 X123.398 Y110.837 E4.0829
G1 F827.6 X123.424 Y109.97 E4.108
G1 X123.396 Y109.13 E4.13232
G1 F822.9 X123.319 Y108.323 E4.15591
G1 X123.188 Y107.491 E4.18042
G1 F827.6 X123.003 Y106.668 E4.20483
G1 X122.772 Y105.87 E4.22887
G1 F825.2 X122.482 Y105.062 E4.25378
G1 F822.9 X122.148 Y104.287 E4.27834
G1 F825.2 X121.75 Y103.509 E4.3037
G1 X121.337 Y102.812 E4.32721
G1 X120.877 Y102.133 E4.35101
G1 F827.6 X120.362 Y101.468 E4.37535
G1 F830 X120.326 Y101.423 E4.37701
G1 F827.6 X119.767 Y100.793 E4.40138
G1 F822.9 X119.19 Y100.216 E4.42513
G1 F825.2 X118.559 Y99.659 E4.44956
G1 F827.6 X117.891 Y99.141 E4.47402
G1 F825.2 X117.194 Y98.666 E4.49849
G1 X116.472 Y98.239 E4.52284
G1 X115.717 Y97.854 E4.54743
G1 X114.929 Y97.513 E4.57235
G1 X114.123 Y97.226 E4.59718
G1 F827.6 X113.309 Y96.992 E4.62168
G1 X112.514 Y96.814 E4.64526
G1 F825.2 X111.682 Y96.681 E4.66971
G1 X110.844 Y96.602 E4.69413
G1 X110.002 Y96.575 E4.71858
G1 X109.158 Y96.603 E4.74309
G1 X108.317 Y96.682 E4.7676
G1 X107.525 Y96.805 E4.79086
G1 X106.66 Y96.998 E4.81658
G1 X105.824 Y97.242 E4.84185
G1 X105.059 Y97.519 E4.86546
G1 X104.262 Y97.865 E4.89067
G1 X103.535 Y98.235 E4.91435
G1 X102.806 Y98.666 E4.93892
G1 X102.087 Y99.156 E4.96417
G1 X101.442 Y99.657 E4.98787
G1 F822.9 X100.808 Y100.215 E5.01245
G1 F820.5 X100.233 Y100.788 E5.03614
G1 X99.655 Y101.444 E5.06166
G1 F822.9 X99.139 Y102.11 E5.08618
G1 F825.2 X98.664 Y102.808 E5.11068
G1 F822.9 X98.249 Y103.508 E5.13437
G1 X97.852 Y104.288 E5.15984
G1 X97.508 Y105.086 E5.18513
G1 X97.225 Y105.877 E5.20958
G1 X97.004 Y106.635 E5.23255
G1 F825.2 X96.813 Y107.488 E5.25792
G1 X96.678 Y108.345 E5.2831
G1 F822.9 X96.603 Y109.129 E5.30602
G1 X96.575 Y110.002 E5.33144
G0 F9000 X96.612 Y110.001
G0 X96.919 Y109.157
G0 X97.325 Y109.196
;TYPE:WALL-OUTER
G1 F720 X97.401 Y108.4 E5.35803
G1 X97.523 Y107.626 E5.38409
G1 X97.699 Y106.835 E5.41105
G1 X97.924 Y106.068 E5.43763
G1 X98.194 Y105.319 E5.46411
G1 X98.511 Y104.587 E5.49064
G1 X98.874 Y103.875 E5.51722
G1 X99.28 Y103.189 E5.54374
G1 X99.727 Y102.53 E5.57022
G1 X100.219 Y101.901 E5.59678
G1 X100.746 Y101.301 E5.62334
G1 X101.312 Y100.738 E5.6499
G1 X101.91 Y100.208 E5.67647
G1 X102.54 Y99.721 E5.70296
G1 X103.199 Y99.274 E5.72944
G1 X103.886 Y98.867 E5.756
G1 X104.6 Y98.506 E5.78261
G1 X105.328 Y98.19 E5.80901
G1 X106.082 Y97.918 E5.83567
G1 X106.848 Y97.696 E5.86219
G1 X107.638 Y97.519 E5.88912
G1 X108.415 Y97.399 E5.91527
G1 X109.21 Y97.325 E5.94183
G1 X110.007 Y97.3 E5.96835
G1 X110.804 Y97.325 E5.99487
G1 X111.6 Y97.401 E6.02146
G1 X112.374 Y97.523 E6.04753
G1 X113.166 Y97.7 E6.07452
G1 X113.932 Y97.924 E6.10106
G1 X114.683 Y98.195 E6.12762
G1 X115.413 Y98.511 E6.15407
G1 X116.127 Y98.875 E6.18073
G1 X116.812 Y99.281 E6.20721
G1 X117.471 Y99.728 E6.2337
G1 X118.1 Y100.219 E6.26024
G1 X118.699 Y100.746 E6.28677
G1 X119.262 Y101.312 E6.31333
G1 X119.792 Y101.91 E6.3399
G1 X120.279 Y102.54 E6.36639
G1 X120.725 Y103.199 E6.39285
G1 X121.133 Y103.887 E6.41946
G1 X121.494 Y104.6 E6.44604
G1 X121.806 Y105.317 E6.47205
G1 X122.081 Y106.081 E6.49905
G1 X122.303 Y106.844 E6.52548
G1 X122.481 Y107.639 E6.55258
G1 X122.601 Y108.414 E6.57866
G1 X122.675 Y109.209 E6.60522
G1 X122.701 Y110.006 E6.63174
G1 X122.675 Y110.795 E6.658
G1 X122.6 Y111.591 E6.68459
G1 X122.478 Y112.365 E6.71065
G1 X122.303 Y113.157 E6.73763
G1 X122.078 Y113.924 E6.76422
G1 X121.811 Y114.67 E6.79057
G1 X121.492 Y115.405 E6.81722
G1 X121.137 Y116.108 E6.84341
G1 X120.724 Y116.803 E6.8703
G1 X120.277 Y117.465 E6.89687
G1 X119.78 Y118.105 E6.92382
G1 X119.259 Y118.694 E6.94997
G1 X118.693 Y119.257 E6.97653
G1 X118.095 Y119.787 E7.0031
G1 X117.465 Y120.275 E7.02961
G1 X116.806 Y120.722 E7.05609
G1 X116.119 Y121.13 E7.08267
G1 X115.405 Y121.491 E7.10928
G1 X114.677 Y121.808 E7.13569
G1 X113.923 Y122.079 E7.16234
G1 X113.168 Y122.301 E7.18851
G1 X112.367 Y122.48 E7.21581
G1 X111.591 Y122.6 E7.24193
G1 X110.795 Y122.675 E7.26852
G1 X109.998 Y122.7 E7.29504
G1 X109.201 Y122.675 E7.32156
G1 X108.405 Y122.599 E7.34816
G1 X107.63 Y122.477 E7.37425
G1 X106.839 Y122.302 E7.4012
G1 X106.072 Y122.077 E7.42778
G1 X105.321 Y121.806 E7.45434
G1 X104.591 Y121.49 E7.48079
G1 X103.877 Y121.127 E7.50744
G1 X103.191 Y120.721 E7.53395
G1 X102.533 Y120.275 E7.56039
G1 X101.904 Y119.783 E7.58695
G1 X101.303 Y119.255 E7.61356
G1 X100.74 Y118.69 E7.64008
G1 X100.21 Y118.093 E7.66664
G1 X99.722 Y117.462 E7.69317
G1 X99.275 Y116.804 E7.71962
G1 X98.868 Y116.116 E7.74621
G1 X98.507 Y115.403 E7.77279
G1 X98.19 Y114.673 E7.79926
G1 X97.919 Y113.921 E7.82585
G1 X97.697 Y113.155 E7.85238
G1 X97.52 Y112.365 E7.8793
G1 X97.399 Y111.588 E7.90546
G1 X97.325 Y110.793 E7.93201
G1 X97.3 Y110.011 E7.95804
G1 X97.325 Y109.196 E7.98516
G1 F1500 E1.48516
G0 F9000 X96.919 Y109.157
G0 X97.361 Y106.755
G0 X97.867 Y105.196
G0 X98.564 Y103.713
G0 X99.442 Y102.33
G0 X100.487 Y101.067
G0 X101.682 Y99.946
G0 X103.008 Y98.982
G0 X104.444 Y98.192
G0 X105.967 Y97.589
G0 X107.555 Y97.181
G0 X109.181 Y96.977
G0 X110.819 Y96.977
G0 X112.445 Y97.181
G0 X114.033 Y97.589
G0 X115.556 Y98.192
G0 X116.992 Y98.982
G0 X118.066 Y99.763
G0 X119.57 Y101.04
G1 F1500 E7.98516
G0 F9000 X119.543 Y101.063
;TYPE:WALL-INNER
G1 F827.6 X120.067 Y101.652 E8.00797
G1 F830 X120.589 Y102.33 E8.03266
G1 F825.2 X121.048 Y103.008 E8.05642
G1 F822.9 X121.462 Y103.708 E8.08008
G1 X121.839 Y104.45 E8.10431
G1 X122.159 Y105.193 E8.12785
G1 F825.2 X122.441 Y105.976 E8.152
G1 F827.6 X122.667 Y106.756 E8.1755
G1 X122.851 Y107.582 E8.19999
G1 F825.2 X122.97 Y108.344 E8.22237
G1 X123.048 Y109.162 E8.24621
G1 F827.6 X123.076 Y109.98 E8.2699
G1 X123.048 Y110.83 E8.29451
G1 F825.2 X122.971 Y111.649 E8.31838
G1 F827.6 X122.852 Y112.413 E8.34075
G1 F830 X122.665 Y113.252 E8.36555
G1 F827.6 X122.431 Y114.05 E8.38962
G1 X122.168 Y114.789 E8.41231
G1 X121.826 Y115.574 E8.43709
G1 X121.471 Y116.278 E8.45991
G1 X121.035 Y117.013 E8.48463
G1 F825.2 X120.58 Y117.686 E8.50821
G1 F827.6 X120.083 Y118.325 E8.53163
G1 F825.2 X119.524 Y118.96 E8.55618
G1 F822.9 X118.942 Y119.538 E8.58006
G1 F825.2 X118.354 Y120.061 E8.60289
G1 X117.675 Y120.586 E8.6278
G1 F822.9 X117.008 Y121.039 E8.65126
G1 X116.29 Y121.464 E8.67555
G1 X115.555 Y121.835 E8.69951
G1 F825.2 X114.814 Y122.157 E8.72295
G1 X114.028 Y122.439 E8.74719
G1 F827.6 X113.273 Y122.661 E8.76996
G1 X112.427 Y122.85 E8.79504
G1 F825.2 X111.627 Y122.973 E8.81853
G1 F822.9 X110.821 Y123.049 E8.84209
G1 F825.2 X109.986 Y123.074 E8.86633
G1 F822.9 X109.166 Y123.048 E8.89021
G1 X108.347 Y122.97 E8.91415
G1 X107.549 Y122.843 E8.93767
G1 X106.734 Y122.662 E8.96196
G1 X105.947 Y122.431 E8.98583
G1 X105.172 Y122.151 E9.00982
G1 X104.433 Y121.831 E9.03325
G1 X103.686 Y121.45 E9.05766
G1 X102.981 Y121.032 E9.08151
G1 X102.303 Y120.571 E9.10537
G1 X101.656 Y120.065 E9.12927
G1 X101.037 Y119.52 E9.15328
G1 X100.459 Y118.939 E9.17713
G1 F825.2 X99.924 Y118.335 E9.20054
G1 F827.6 X99.413 Y117.674 E9.22472
G1 F825.2 X98.953 Y116.994 E9.24854
G1 X98.534 Y116.287 E9.27239
G1 F822.9 X98.163 Y115.552 E9.29635
G1 X97.838 Y114.8 E9.32019
G1 F827.6 X97.56 Y114.026 E9.34399
G1 X97.332 Y113.237 E9.36776
G1 F825.2 X97.15 Y112.425 E9.3919
G1 X97.026 Y111.624 E9.41543
G1 X96.951 Y110.805 E9.43929
G1 X96.926 Y110.023 E9.462
G1 F822.9 X96.952 Y109.161 E9.48709
G1 X97.03 Y108.342 E9.51104
G1 F825.2 X97.158 Y107.545 E9.53446
G1 X97.339 Y106.731 E9.55866
G1 F822.9 X97.571 Y105.941 E9.58262
G1 F825.2 X97.844 Y105.185 E9.60595
G1 X98.17 Y104.431 E9.62979
G1 F822.9 X98.55 Y103.686 E9.65413
G1 X98.969 Y102.979 E9.67804
G1 X99.431 Y102.3 E9.70194
G1 X99.937 Y101.653 E9.72585
G1 X100.48 Y101.036 E9.74977
G1 X101.063 Y100.457 E9.77368
G1 F825.2 X101.681 Y99.912 E9.79759
G1 X102.33 Y99.411 E9.82138
G1 X103.008 Y98.951 E9.84516
G1 F822.9 X103.715 Y98.533 E9.86906
G1 X104.45 Y98.162 E9.89302
G1 F825.2 X105.201 Y97.838 E9.91676
G1 X105.964 Y97.563 E9.9403
G1 X106.766 Y97.331 E9.96452
G1 X107.579 Y97.149 E9.9887
G1 X108.365 Y97.027 E10.01178
G1 X109.198 Y96.951 E10.03606
G1 X110.019 Y96.926 E10.05989
G1 X110.84 Y96.952 E10.08373
G1 X111.658 Y97.031 E10.10758
G1 X112.455 Y97.158 E10.131
G1 F827.6 X113.256 Y97.336 E10.15474
G1 X114.059 Y97.571 E10.17895
G1 X114.832 Y97.85 E10.20273
G1 F825.2 X115.584 Y98.177 E10.22653
G1 X116.317 Y98.552 E10.25042
G1 X117.022 Y98.97 E10.27421
G1 X117.69 Y99.424 E10.29764
G1 F827.6 X118.347 Y99.937 E10.32176
G1 X118.938 Y100.455 E10.34451
G1 F825.2 X119.543 Y101.063 E10.3694
G0 F9000 X119.554 Y101.053
G1 F1500 E3.8694
;MESH:NONMESH
G0 F300 X119.554 Y101.053 Z0.4
G0 F9000 X119.57 Y101.04
G0 X117.67 Y99.442
G0 X116.287 Y98.564
G0 X114.804 Y97.867
G0 X113.245 Y97.361
G0 X111.635 Y97.054
G0 X110 Y96.95
G0 X108.365 Y97.054
G0 X106.755 Y97.361
G0 X105.196 Y97.867
G0 X103.713 Y98.564
G0 X102.33 Y99.442
G0 X101.067 Y100.487
G0 X99.946 Y101.682
G0 X98.982 Y103.008
G0 X98.192 Y104.444
G0 X97.589 Y105.967
G0 X96.611 Y109.997
G1 F1500 E10.3694
G0 F9000 X96.2 Y109.99
;TIME_ELAPSED:33.072187
;LAYER:1
M106 S85
;TYPE:WALL-OUTER
;MESH:cutoff.stl
G1 F1110 X96.228 Y110.867 E10.39858
G1 X96.312 Y111.745 E10.42792
G1 X96.445 Y112.583 E10.45614
G1 X96.64 Y113.446 E10.48556
G1 X96.881 Y114.274 E10.51425
G1 X97.176 Y115.096 E10.54329
G1 X97.519 Y115.887 E10.57197
G1 X97.907 Y116.647 E10.60035
G1 X98.356 Y117.406 E10.62968
G1 X98.837 Y118.11 E10.65804
G1 X99.378 Y118.806 E10.68736
G1 X99.952 Y119.457 E10.71623
G1 X100.565 Y120.069 E10.74504
G1 X101.217 Y120.641 E10.77388
G1 X101.903 Y121.172 E10.80274
G1 X102.579 Y121.635 E10.82999
G1 X102.65 Y121.679 E10.83277
G1 X103.364 Y122.099 E10.86032
G1 X104.139 Y122.493 E10.88924
G1 X104.951 Y122.843 E10.91864
G1 X105.751 Y123.127 E10.94688
G1 X106.544 Y123.358 E10.97435
G1 X107.434 Y123.558 E11.00469
G1 X108.288 Y123.692 E11.03344
G1 X109.15 Y123.772 E11.06224
G1 X110.015 Y123.8 E11.09102
G1 X110.84 Y123.772 E11.11848
G1 X110.919 Y123.767 E11.12111
G1 X111.745 Y123.689 E11.1487
G1 X112.585 Y123.555 E11.177
G1 X113.433 Y123.365 E11.2059
G1 X114.279 Y123.119 E11.2352
G1 X115.093 Y122.824 E11.264
G1 X115.874 Y122.486 E11.29231
G1 X116.649 Y122.091 E11.32124
G1 X117.394 Y121.653 E11.34998
G1 X118.124 Y121.155 E11.37937
G1 X118.808 Y120.623 E11.40819
G1 X119.459 Y120.048 E11.43708
G1 X120.07 Y119.435 E11.46587
G1 X120.643 Y118.783 E11.49474
G1 X121.173 Y118.098 E11.52355
G1 X121.662 Y117.378 E11.55249
G1 X122.091 Y116.649 E11.58063
G1 X122.493 Y115.858 E11.61014
G1 X122.837 Y115.061 E11.63901
G1 X123.129 Y114.246 E11.6678
G1 X123.364 Y113.433 E11.69595
G1 X123.56 Y112.551 E11.726
G1 X123.692 Y111.714 E11.75419
