;FLAVOR:Marlin
;TIME:1372
;Filament used: 0.557162m
;Layer height: 0.2
;MINX:96.25
;MINY:96.25
;MINZ:0.2
;MAXX:123.75
;MAXY:123.75
;MAXZ:23.6
;Generated with Cura_SteamEngine 5.0.0
M140 S60
M105
M190 S60
M104 S200
M105
M109 S200
M82 ;absolute extrusion mode
; Ender 3 Custom Start G-code
G92 E0 ; Reset Extruder
G28 ; Home all axes
G1 Z2.0 F3000 ; Move Z Axis up little to prevent scratching of Heat Bed
G1 X0.1 Y20 Z0.3 F5000.0 ; Move to start position
G1 X0.1 Y200.0 Z0.3 F1500.0 E15 ; Draw the first line
G1 X0.4 Y200.0 Z0.3 F5000.0 ; Move to side a little
G1 X0.4 Y20 Z0.3 F1500.0 E30 ; Draw the second line
G92 E0 ; Reset Extruder
G1 Z2.0 F3000 ; Move Z Axis up little to prevent scratching of Heat Bed
G1 X5 Y20 Z0.3 F5000.0 ; Move over to prevent blob squish
G92 E0
G92 E0
G1 F1500 E-6.5
;LAYER_COUNT:120
;LAYER:0
M107
;MESH:cutoff.stl
G0 F9000 X96.25 Y109.997 Z0.2
;TYPE:WALL-OUTER
G1 F1500 E0
G1 F576 X96.279 Y110.886 E0.03698
G1 X96.359 Y111.729 E0.07219
G1 F577.2 X96.495 Y112.581 E0.10798
G1 F578.3 X96.689 Y113.442 E0.14453
G1 X96.922 Y114.241 E0.17899
G1 F577.2 X97.216 Y115.062 E0.21518
G1 F576 X97.56 Y115.858 E0.25123
G1 X97.954 Y116.629 E0.28723
G1 X98.394 Y117.372 E0.32313
G1 F577.2 X98.876 Y118.081 E0.3587
G1 F578.3 X99.409 Y118.768 E0.39471
G1 F577.2 X99.982 Y119.416 E0.4306
G1 F576 X100.592 Y120.026 E0.46646
G1 F577.2 X101.247 Y120.603 E0.50268
G1 F578.3 X101.939 Y121.138 E0.5389
G1 F577.2 X102.639 Y121.614 E0.57402
G1 F576 X103.398 Y122.06 E0.61062
G1 X104.151 Y122.444 E0.64577
G1 X104.962 Y122.794 E0.68249
G1 X105.757 Y123.078 E0.71759
G1 F578.3 X106.588 Y123.319 E0.75342
G1 X107.432 Y123.507 E0.78922
G1 F577.2 X108.304 Y123.644 E0.82585
G1 F576 X109.165 Y123.723 E0.86179
G1 X110.006 Y123.75 E0.89678
G1 F577.2 X110.889 Y123.72 E0.93343
G1 X111.729 Y123.64 E0.96845
G1 X112.583 Y123.505 E1.00432
G1 F578.3 X113.445 Y123.311 E1.04091
G1 F577.2 X114.255 Y123.075 E1.07591
G1 F576 X115.066 Y122.782 E1.11176
G1 X115.86 Y122.438 E1.14774
G1 F577.2 X116.632 Y122.044 E1.1837
G1 X117.368 Y121.61 E1.21915
G1 F576 X118.106 Y121.106 E1.25631
G1 F578.3 X118.787 Y120.576 E1.29204
G1 F577.2 X119.419 Y120.017 E1.32705
G1 F576 X120.044 Y119.39 E1.36386
G1 F577.2 X120.6 Y118.759 E1.39875
G1 F578.3 X121.142 Y118.057 E1.43548
G1 X121.614 Y117.361 E1.4703
G1 F576 X122.05 Y116.619 E1.50608
G1 F577.2 X122.444 Y115.847 E1.54204
G1 X122.796 Y115.03 E1.57895
G1 X123.085 Y114.22 E1.61464
G1 F578.3 X123.325 Y113.388 E1.65049
G1 F580.6 X123.514 Y112.533 E1.68661
G1 F579.5 X123.645 Y111.692 E1.72178
G1 F578.3 X123.724 Y110.83 E1.75763
G1 F577.2 X123.749 Y109.976 E1.79308
G1 X123.721 Y109.116 E1.82878
G1 X123.641 Y108.281 E1.86358
G1 F576 X123.509 Y107.435 E1.89918
G1 F578.3 X123.311 Y106.561 E1.93629
G1 F580.6 X123.069 Y105.731 E1.97195
G1 F579.5 X122.775 Y104.917 E2.00771
G1 F577.2 X122.442 Y104.147 E2.04252
G1 F576 X122.05 Y103.38 E2.07833
G1 X121.616 Y102.643 E2.11389
G1 X121.11 Y101.902 E2.15119
G1 F579.5 X120.581 Y101.219 E2.1869
G1 X120.008 Y100.574 E2.22255
G1 F577.2 X119.395 Y99.962 E2.25849
G1 F578.3 X118.756 Y99.4 E2.29373
G1 X118.081 Y98.877 E2.32909
G1 F577.2 X117.367 Y98.39 E2.36495
G1 X116.623 Y97.951 E2.40079
G1 X115.833 Y97.549 E2.43757
G1 X115.042 Y97.208 E2.47331
G1 X114.228 Y96.918 E2.50916
G1 F578.3 X113.396 Y96.678 E2.54502
G1 X112.572 Y96.494 E2.57998
G1 F577.2 X111.746 Y96.362 E2.61469
G1 X110.862 Y96.277 E2.65154
G1 X110 Y96.25 E2.68732
G1 X109.117 Y96.28 E2.72398
G1 X108.275 Y96.359 E2.75907
G1 X107.422 Y96.494 E2.7949
G1 F578.3 X106.562 Y96.688 E2.83141
G1 X105.749 Y96.924 E2.86646
G1 F577.2 X104.958 Y97.209 E2.90135
G1 X104.169 Y97.548 E2.93698
G1 F576 X103.396 Y97.941 E2.97303
G1 X102.643 Y98.383 E3.00933
G1 X101.901 Y98.889 E3.04667
G1 F577.2 X101.233 Y99.407 E3.08175
G1 F576 X100.573 Y99.991 E3.11839
G1 X99.962 Y100.603 E3.15434
G1 F577.2 X99.412 Y101.227 E3.18885
G1 X98.874 Y101.92 E3.22526
G1 X98.378 Y102.652 E3.26194
G1 X97.951 Y103.378 E3.29689
G1 X97.549 Y104.168 E3.33367
G1 X97.214 Y104.942 E3.36866
G1 F576 X96.917 Y105.771 E3.40527
G1 F577.2 X96.682 Y106.583 E3.44035
G1 F578.3 X96.489 Y107.458 E3.47745
G1 F577.2 X96.358 Y108.28 E3.51199
G1 F576 X96.277 Y109.16 E3.54873
G1 X96.25 Y109.997 E3.58355
G0 F9000 X96.751 Y110.012
G1 F577.2 X96.75 Y109.996 E3.58421
G1 F576 X96.777 Y109.16 E3.61899
G1 X96.856 Y108.331 E3.65361
G1 F577.2 X96.984 Y107.522 E3.68759
G1 X97.166 Y106.697 E3.72265
G1 F576 X97.401 Y105.897 E3.75731
G1 F577.2 X97.683 Y105.116 E3.79176
G1 X98.014 Y104.351 E3.82635
G1 F576 X98.393 Y103.609 E3.86099
G1 X98.817 Y102.893 E3.89559
G1 F577.2 X99.284 Y102.205 E3.93009
G1 X99.802 Y101.537 E3.96516
G1 X100.346 Y100.924 E3.99917
G1 X100.937 Y100.335 E4.03379
G1 F576 X101.56 Y99.783 E4.06839
G1 X102.218 Y99.276 E4.10293
G1 X102.905 Y98.809 E4.13746
G1 X103.623 Y98.385 E4.17213
G1 X104.367 Y98.007 E4.20683
G1 F577.2 X105.128 Y97.679 E4.24121
G1 X105.914 Y97.395 E4.27589
G1 X106.714 Y97.163 E4.31045
G1 X107.536 Y96.979 E4.3454
G1 F576 X108.348 Y96.854 E4.37956
G1 F577.2 X109.172 Y96.777 E4.41389
G1 X110.008 Y96.75 E4.4486
G1 X110.84 Y96.777 E4.48314
G1 X111.669 Y96.856 E4.51769
G1 X112.479 Y96.984 E4.55172
G1 F578.3 X113.303 Y97.168 E4.58668
G1 F577.2 X114.103 Y97.402 E4.62126
G1 F576 X114.886 Y97.684 E4.65586
G1 X115.649 Y98.014 E4.69042
G1 X116.392 Y98.395 E4.72514
G1 X117.108 Y98.817 E4.75969
G1 F577.2 X117.795 Y99.285 E4.79418
G1 F578.3 X118.462 Y99.803 E4.82915
G1 X119.076 Y100.346 E4.8631
G1 F577.2 X119.664 Y100.937 E4.89769
G1 F578.3 X120.207 Y101.548 E4.93153
G1 F579.5 X120.724 Y102.218 E4.96651
G1 F576 X121.19 Y102.905 E5.00102
G1 X121.615 Y103.624 E5.03575
G1 X121.993 Y104.367 E5.0704
G1 X122.321 Y105.128 E5.10486
G1 F577.2 X122.605 Y105.913 E5.13949
G1 F578.3 X122.836 Y106.713 E5.17397
G1 F577.2 X123.021 Y107.538 E5.20905
G1 X123.146 Y108.347 E5.24302
G1 F576 X123.224 Y109.17 E5.27739
G1 F577.2 X123.25 Y110.007 E5.31214
G1 X123.223 Y110.829 E5.34626
G1 F576 X123.146 Y111.657 E5.38083
G1 X123.016 Y112.475 E5.41527
G1 F577.2 X122.835 Y113.294 E5.45007
G1 X122.601 Y114.094 E5.48465
G1 F576 X122.32 Y114.875 E5.51916
G1 F577.2 X121.989 Y115.641 E5.55379
G1 X121.611 Y116.383 E5.58834
G1 X121.188 Y117.099 E5.62284
G1 X120.721 Y117.788 E5.65738
G1 X120.202 Y118.457 E5.69251
G1 X119.659 Y119.07 E5.72649
G1 F576 X119.069 Y119.66 E5.76118
G1 F577.2 X118.444 Y120.212 E5.79578
G1 X117.788 Y120.72 E5.8302
G1 F576 X117.101 Y121.187 E5.86474
G1 X116.383 Y121.612 E5.89943
G1 X115.639 Y121.99 E5.93412
G1 F577.2 X114.878 Y122.319 E5.96852
G1 X114.092 Y122.603 E6.0032
G1 X113.292 Y122.836 E6.03777
G1 X112.469 Y123.02 E6.07276
G1 X111.657 Y123.145 E6.10685
G1 F576 X110.833 Y123.224 E6.14127
G1 F577.2 X110.013 Y123.249 E6.17531
G1 X109.997 Y123.25 E6.17597
G1 F576 X109.165 Y123.223 E6.21058
G1 F577.2 X108.336 Y123.144 E6.24513
G1 X107.525 Y123.017 E6.27919
G1 X106.701 Y122.834 E6.31422
G1 F576 X105.902 Y122.6 E6.34883
G1 F574.9 X105.117 Y122.317 E6.38359
G1 F576 X104.355 Y121.987 E6.41811
G1 X103.612 Y121.608 E6.45279
G1 X102.895 Y121.184 E6.48742
G1 F577.2 X102.207 Y120.716 E6.52195
G1 F578.3 X101.541 Y120.2 E6.55684
G1 F576 X100.926 Y119.656 E6.59097
G1 X100.339 Y119.066 E6.62557
G1 F577.2 X99.786 Y118.443 E6.66014
G1 X99.277 Y117.784 E6.69469
G1 X98.811 Y117.097 E6.72913
G1 X98.386 Y116.379 E6.76375
G1 F576 X98.008 Y115.636 E6.79841
G1 F577.2 X97.679 Y114.873 E6.83288
G1 F578.3 X97.396 Y114.089 E6.8674
G1 X97.164 Y113.289 E6.90189
G1 F577.2 X96.98 Y112.467 E6.93684
G1 X96.854 Y111.655 E6.97094
G1 F576 X96.776 Y110.833 E7.00526
G1 F577.2 X96.751 Y110.012 E7.03935
G1 F1500 E0.53935
;MESH:NONMESH
G0 F300 X96.751 Y110.012 Z0.4
G0 F9000 X96.25 Y109.989
;TIME_ELAPSED:22.631370
;LAYER:1
M106 S85
;TYPE:WALL-OUTER
;MESH:cutoff.stl
G1 F1500 E7.03935
G1 F814.7 X96.278 Y110.871 E7.07603
G1 F816.3 X96.36 Y111.729 E7.1118
G1 X96.489 Y112.553 E7.1464
G1 F818 X96.691 Y113.449 E7.18443
G1 X96.924 Y114.248 E7.2189
G1 F816.3 X97.219 Y115.069 E7.2551
G1 F814.7 X97.572 Y115.882 E7.29195
G1 X97.954 Y116.629 E7.32683
G1 X98.389 Y117.366 E7.36241
G1 X98.881 Y118.086 E7.39866
G1 F816.3 X99.409 Y118.768 E7.43445
G1 F818 X100 Y119.434 E7.47132
G1 F816.3 X100.592 Y120.026 E7.50606
G1 F818 X101.241 Y120.598 E7.54188
G1 X101.925 Y121.127 E7.57769
G1 F814.7 X102.639 Y121.614 E7.61362
G1 X103.405 Y122.064 E7.65055
G1 X104.151 Y122.444 E7.68536
G1 X104.971 Y122.797 E7.72248
G1 X105.757 Y123.078 E7.75718
G1 F816.3 X106.588 Y123.319 E7.79308
G1 X107.443 Y123.509 E7.82942
G1 X108.285 Y123.642 E7.86479
G1 F814.7 X109.144 Y123.722 E7.90066
G1 X110.007 Y123.75 E7.93656
G1 X110.869 Y123.722 E7.97241
G1 X111.762 Y123.636 E8.00971
G1 F816.3 X112.568 Y123.508 E8.04357
G1 X113.413 Y123.319 E8.0795
G1 X114.256 Y123.075 E8.11592
G1 X115.074 Y122.778 E8.15202
G1 X115.846 Y122.445 E8.18691
G1 X116.633 Y122.043 E8.22358
G1 F814.7 X117.367 Y121.61 E8.25901
G1 X118.092 Y121.116 E8.29548
G1 X118.772 Y120.588 E8.33127
G1 F813.1 X119.413 Y120.023 E8.36687
G1 F814.7 X120.034 Y119.401 E8.40341
G1 X120.598 Y118.76 E8.43891
G1 F816.3 X121.134 Y118.068 E8.47523
G1 X121.62 Y117.35 E8.5112
G1 F814.7 X122.056 Y116.608 E8.54698
G1 F816.3 X122.449 Y115.837 E8.58289
G1 X122.786 Y115.054 E8.61826
G1 F814.7 X123.076 Y114.249 E8.65383
G1 F816.3 X123.318 Y113.414 E8.6899
G1 F818 X123.33 Y113.368 E8.69187
G1 X123.507 Y112.569 E8.72576
G1 F814.7 X123.642 Y111.717 E8.76162
G1 X123.722 Y110.855 E8.79761
G1 F816.3 X123.749 Y109.975 E8.83414
G1 X123.722 Y109.146 E8.86856
G1 F814.7 X123.644 Y108.304 E8.90372
G1 F816.3 X123.51 Y107.448 E8.93966
G1 F818 X123.322 Y106.606 E8.97539
G1 F819.6 X123.311 Y106.562 E8.97726
G1 X123.078 Y105.761 E9.01174
G1 F816.3 X122.792 Y104.961 E9.04699
G1 X122.445 Y104.156 E9.08336
G1 X122.053 Y103.385 E9.11925
G1 X121.612 Y102.639 E9.15521
G1 X121.128 Y101.927 E9.19093
G1 F819.6 X120.581 Y101.221 E9.22784
G1 X120.028 Y100.595 E9.26235
G1 F816.3 X119.419 Y99.985 E9.29812
G1 F818 X118.779 Y99.42 E9.33347
G1 X118.089 Y98.883 E9.36968
G1 F816.3 X117.376 Y98.396 E9.4055
G1 F814.7 X116.634 Y97.957 E9.44135
G1 F816.3 X115.862 Y97.563 E9.47731
G1 X115.042 Y97.208 E9.51438
G1 X114.257 Y96.928 E9.54896
G1 X113.428 Y96.686 E9.5848
G1 X112.572 Y96.494 E9.6212
G1 X111.732 Y96.361 E9.65648
G1 F814.7 X110.871 Y96.279 E9.69244
G1 X110.009 Y96.25 E9.7283
G1 F816.3 X109.147 Y96.278 E9.76408
G1 X108.286 Y96.358 E9.79996
G1 X107.458 Y96.487 E9.83473
G1 X106.587 Y96.682 E9.87177
G1 X105.759 Y96.921 E9.90753
G1 X104.945 Y97.214 E9.94342
G1 X104.153 Y97.557 E9.97923
G1 X103.38 Y97.95 E10.01521
G1 F814.7 X102.643 Y98.383 E10.05075
G1 X101.923 Y98.874 E10.08698
G1 F818 X101.239 Y99.402 E10.12276
G1 F816.3 X100.591 Y99.974 E10.15863
G1 X99.98 Y100.584 E10.19445
G1 F818 X99.418 Y101.221 E10.22963
G1 X98.879 Y101.914 E10.26598
G1 F816.3 X98.392 Y102.63 E10.30191
G1 X97.958 Y103.365 E10.33733
G1 X97.56 Y104.144 E10.37362
G1 X97.217 Y104.936 E10.40943
G1 X96.924 Y105.75 E10.44533
G1 X96.684 Y106.575 E10.48098
G1 X96.494 Y107.428 E10.51724
G1 X96.359 Y108.272 E10.5527
G1 X96.278 Y109.135 E10.58867
G1 X96.25 Y109.989 E10.62412
G0 F9000 X96.751 Y110.02
G1 F816.3 X96.75 Y109.997 E10.62508
G1 F814.7 X96.777 Y109.16 E10.65989
G1 X96.855 Y108.333 E10.69443
G1 X96.985 Y107.515 E10.72886
G1 F816.3 X97.167 Y106.698 E10.76359
G1 X97.401 Y105.897 E10.79822
G1 F814.7 X97.682 Y105.118 E10.83265
G1 F816.3 X98.014 Y104.351 E10.86733
G1 X98.393 Y103.61 E10.90186
G1 X98.815 Y102.895 E10.93631
G1 X99.283 Y102.206 E10.97087
G1 X99.802 Y101.537 E11.006
G1 X100.345 Y100.925 E11.03995
G1 X100.937 Y100.335 E11.07463
G1 X101.559 Y99.785 E11.10908
G1 F818 X102.217 Y99.277 E11.1435
G1 F814.7 X102.905 Y98.809 E11.17809
G1 X103.624 Y98.385 E11.2128
G1 F816.3 X104.366 Y98.008 E11.24733
G1 X105.128 Y97.679 E11.28177
G1 X105.913 Y97.395 E11.3164
G1 X106.714 Y97.163 E11.351
G1 X107.536 Y96.979 E11.38596
G1 X108.348 Y96.854 E11.42004
G1 X109.177 Y96.777 E11.45459
G1 X110.009 Y96.75 E11.48913
G1 F814.7 X110.84 Y96.777 E11.5237
G1 X111.669 Y96.856 E11.55832
G1 F816.3 X112.492 Y96.987 E11.59289
G1 X113.304 Y97.167 E11.6274
G1 F818 X114.107 Y97.403 E11.66206
G1 X114.886 Y97.684 E11.69635
G1 F816.3 X115.653 Y98.016 E11.73103
G1 F814.7 X116.393 Y98.394 E11.76558
G1 X117.11 Y98.819 E11.80023
G1 F816.3 X117.799 Y99.288 E11.83481
G1 F818 X118.462 Y99.803 E11.86958
G1 X119.076 Y100.347 E11.90355
G1 F816.3 X119.671 Y100.944 E11.93852
G1 X120.221 Y101.567 E11.973
G1 F818 X120.724 Y102.219 E12.0071
G1 F816.3 X121.199 Y102.92 E12.04223
G1 F814.7 X121.615 Y103.624 E12.07623
G1 F816.3 X121.997 Y104.378 E12.1113
G1 X122.321 Y105.128 E12.1452
G1 F818 X122.604 Y105.913 E12.17975
G1 F819.6 X122.836 Y106.713 E12.21418
G1 F821.3 X123.018 Y107.522 E12.24838
G1 F818 X123.148 Y108.365 E12.2837
G1 F814.7 X123.224 Y109.177 E12.3176
G1 F816.3 X123.25 Y110.007 E12.35206
G1 X123.223 Y110.824 E12.38598
G1 F814.7 X123.146 Y111.654 E12.42063
G1 F816.3 X123.021 Y112.449 E12.45402
G1 X122.839 Y113.275 E12.48912
G1 X122.603 Y114.087 E12.5242
G1 F814.7 X122.326 Y114.858 E12.55826
G1 F816.3 X121.993 Y115.633 E12.59326
G1 X121.619 Y116.367 E12.62744
G1 F813.1 X121.191 Y117.093 E12.66255
G1 F814.7 X120.724 Y117.783 E12.69719
G1 F816.3 X120.213 Y118.443 E12.73182
G1 F814.7 X119.664 Y119.065 E12.76632
G1 X119.076 Y119.652 E12.80086
G1 F813.1 X118.453 Y120.205 E12.83556
G1 X117.795 Y120.714 E12.87022
G1 X117.106 Y121.183 E12.90494
G1 F814.7 X116.392 Y121.606 E12.93944
G1 F816.3 X115.648 Y121.985 E12.97409
G1 F814.7 X114.883 Y122.317 E13.00876
G1 X114.101 Y122.6 E13.04333
G1 F816.3 X113.304 Y122.832 E13.07777
G1 X112.481 Y123.017 E13.11277
G1 F814.7 X111.668 Y123.144 E13.14698
G1 X110.839 Y123.223 E13.18161
G1 X110.007 Y123.25 E13.21622
G1 X109.175 Y123.223 E13.25082
G1 X108.347 Y123.146 E13.2854
G1 X107.525 Y123.016 E13.32
G1 F816.3 X106.712 Y122.836 E13.35455
G1 X105.911 Y122.603 E13.38916
G1 F814.7 X105.126 Y122.32 E13.42385
G1 X104.364 Y121.992 E13.45834
G1 X103.619 Y121.612 E13.49311
G1 X102.905 Y121.19 E13.52759
G1 X102.214 Y120.722 E13.56229
G1 F816.3 X101.547 Y120.205 E13.59731
G1 X100.933 Y119.662 E13.63132
G1 X100.345 Y119.073 E13.66585
G1 X99.792 Y118.449 E13.70044
G1 X99.283 Y117.792 E13.73493
G1 F814.7 X98.815 Y117.104 E13.76952
G1 X98.39 Y116.387 E13.80417
G1 X98.013 Y115.644 E13.83881
G1 X97.682 Y114.881 E13.87339
G1 F816.3 X97.397 Y114.089 E13.90832
G1 X97.166 Y113.296 E13.94259
G1 X96.981 Y112.474 E13.97755
G1 X96.855 Y111.662 E14.01164
G1 F814.7 X96.777 Y110.833 E14.04626
G1 F816.3 X96.751 Y110.02 E14.08001
G1 F1500 E7.58001
;MESH:NONMESH
G0 F300 X96.751 Y110.02 Z0.6
G0 F9000 X96.49 Y110.028
G0 X96.788 Y107.48
G0 X97.208 Y105.844
G0 X97.83 Y104.273
G0 X98.645 Y102.793
G0 X99.637 Y101.427
G0 X100.793 Y100.195
G0 X102.095 Y99.119
G0 X103.52 Y98.214
G0 X105.049 Y97.495
G0 X106.656 Y96.973
G0 X108.316 Y96.657
G0 X110 Y96.55
G0 X111.684 Y96.657
G0 X113.344 Y96.973
G0 X114.951 Y97.495
G0 X116.48 Y98.214
G0 X117.905 Y99.119
G0 X118.96 Y99.99
G0 X120.42 Y101.437
G1 F1500 E14.08001
G0 F9000 X120.627 Y101.278
;TIME_ELAPSED:36.742278
;LAYER:2
M106 S170
;TYPE:WALL-OUTER
;MESH:cutoff.stl
G1 F863.2 X120.58 Y101.222 E14.08303
G1 X120.047 Y100.616 E14.11638
G1 F859.7 X119.448 Y100.012 E14.15168
G1 F861.4 X118.791 Y99.429 E14.18805
G1 X118.088 Y98.884 E14.22488
G1 F859.7 X117.393 Y98.407 E14.25986
G1 X116.649 Y97.966 E14.29575
G1 X115.881 Y97.572 E14.33156
G1 X115.07 Y97.22 E14.36824
G1 X114.274 Y96.933 E14.40335
G1 X113.444 Y96.69 E14.43924
G1 F861.4 X112.599 Y96.5 E14.4751
G1 F859.7 X111.744 Y96.363 E14.51103
G1 X110.885 Y96.28 E14.54684
G1 X110.009 Y96.251 E14.5832
G1 X109.173 Y96.276 E14.61791
G1 F858 X108.297 Y96.357 E14.65448
G1 F859.7 X107.443 Y96.491 E14.69035
G1 F861.4 X106.592 Y96.681 E14.72646
G1 F859.7 X105.767 Y96.918 E14.76207
G1 F858 X104.956 Y97.21 E14.79791
G1 X104.156 Y97.555 E14.83413
G1 F859.7 X103.385 Y97.948 E14.87003
G1 X102.651 Y98.379 E14.90535
G1 X101.926 Y98.872 E14.94173
G1 X101.245 Y99.398 E14.97743
G1 F858 X100.594 Y99.971 E15.01349
G1 X99.962 Y100.604 E15.05068
G1 F859.7 X99.413 Y101.227 E15.08513
G1 X98.881 Y101.911 E15.12109
G1 X98.395 Y102.626 E15.15696
G1 X97.958 Y103.368 E15.19269
